X:1
T:Title
%%score { 1 | ( 2 3 ) }
L:1/8
M:4/4
K:Eb
V:1 treble nm="Grand Piano"
V:2 bass 
V:3 bass 
V:1
 z4 z2[Q:1/4=100] [EG][FA] | [GB]2 [GB]2 [GB]2 GF | E2 E2 E2 GB | c2 c2 e2 dc | %4
 [GB]2 [GB]2 [GB]2 [FA]G | F2 B2 =A2 c2 |[M:3/4] [DB]6 |[M:1/4] [DF][EG] | %8
[M:4/4] [FA]2 [FA]2 [FA][Ac][GB]A | G2 G2 G2 AB | c2 c2 ce[Bd][Ac] | [GB]2 [GB]2 [GB]2 [B,EG]2 | %12
 [A,CF]2 [CFA]2 [B,EG]2 [A,DF]2 |[M:3/4] [G,E]6 |] %14
V:2
 z4 z2 [E,B,]2 | z4 z2 .B,2 | z4 z2 .[B,E]2 | [A,EA]2 [A,EA]2 [A,CA]2 [A,A]-[A,DA] | z4 z2 B,2 | %5
 [F,B,D]2 [F,DF]2 [F,CF]2 [F,=A,E]2 |[M:3/4] [B,,B,]6 |[M:1/4] [B,,B,]2 | %8
[M:4/4] [B,,B,]2 [B,,B,]2 [B,,B,]2 z F | [E,B,E]2 [E,B,E]2 [E,B,E]2[K:treble] [B,F][EG] | %10
 [A,EA]2 [A,EA]2 Ac[K:bass] [A,E]2 | [E,E]2 [E,E]2 [E,E]2 E,2 | A,,2 A,,2 B,,2 B,,2 |[M:3/4] E,6 |] %14
V:3
 x8 | [E,E]2 [E,E]2 [E,E]2 [E,E]-[E,A,E] | [E,G,]2 [E,G,]2 [E,G,]2 E,-[E,EG] | z4 z2 .C2 | %4
 [E,E]2 [E,E]2 [E,E]2 D,[E,E] | x8 |[M:3/4] x6 |[M:1/4] x2 |[M:4/4] z4 z2 [B,,B,]2 | %9
 z4 z2[K:treble] E,2 | z4 [A,E]2[K:bass] z2 | x8 | x8 |[M:3/4] x6 |] %14

